tools/download-figma-icons/icons/solid/couple.svg

<svg width="24" height="24" viewBox="0 0 24 24" fill="none" xmlns="http://www.w3.org/2000/svg">
<path fill-rule="evenodd" clip-rule="evenodd" d="M5.25019 9.20225C5.25019 7.02809 6.7689 5.26685 8.62509 5.26685L8.63353 5.25C10.4433 5.25 11.9193 6.91712 12.0045 8.99541C12.0964 6.91713 13.5696 5.26611 15.3749 5.26611C17.2395 5.26611 18.7498 7.03578 18.7498 9.20151C18.7498 10.5245 18.1845 11.6959 17.3155 12.4122C19.5176 13.3813 20.4795 15.7745 20.5976 16.1032C20.8169 16.5582 21.2388 17.62 20.8254 18.2773C20.7073 18.4543 20.4457 18.7493 19.8973 18.7493H10.8525C10.3041 18.7493 10.0341 18.4543 9.92444 18.2773C9.51101 17.6285 9.93288 16.5582 10.1522 16.1032C10.2704 15.7745 11.2322 13.3813 13.4343 12.4122C12.6071 11.7384 12.0551 10.637 12.0039 9.39142C11.9489 10.6372 11.398 11.7254 10.5741 12.4045C10.7344 12.4803 10.8441 12.632 10.8778 12.809C10.9116 12.9944 10.8525 13.1882 10.7175 13.3146L10.7166 13.3155C10.6619 13.3698 8.63353 15.3832 8.63353 18.1854C8.63353 18.4972 8.38041 18.75 8.06823 18.75H4.10272C3.5543 18.75 3.28431 18.4551 3.17462 18.2781C2.7612 17.6292 3.18306 16.559 3.40243 16.1039C3.52055 15.7753 4.4824 13.382 6.68452 12.4129C5.81549 11.7051 5.25019 10.5253 5.25019 9.20225Z" fill="black"/>
</svg>

<svg width="24" height="24" viewBox="0 0 24 24" fill="none" xmlns="http://www.w3.org/2000/svg"><path fill-rule="evenodd" clip-rule="evenodd" d="M5.25 9.202c0-2.174 1.519-3.935 3.375-3.935l.009-.017c1.81 0 3.285 1.667 3.37 3.745.092-2.078 1.566-3.729 3.37-3.729 1.865 0 3.376 1.77 3.376 3.936 0 1.322-.566 2.494-1.434 3.21 2.202.97 3.164 3.362 3.282 3.691.219.455.64 1.517.227 2.174-.118.177-.38.472-.928.472h-9.044c-.549 0-.819-.295-.929-.472-.413-.649.009-1.719.228-2.174.118-.329 1.08-2.722 3.282-3.69-.827-.675-1.379-1.776-1.43-3.022-.055 1.246-.606 2.334-1.43 3.014.16.075.27.227.304.404a.558.558 0 0 1-.16.506h-.001c-.055.055-2.083 2.068-2.083 4.87a.565.565 0 0 1-.566.565H4.103c-.549 0-.819-.295-.928-.472-.414-.649.008-1.719.227-2.174.119-.329 1.08-2.722 3.283-3.691-.87-.708-1.435-1.888-1.435-3.21Z" fill="currentColor"/></svg>
